icons/svg/layout-side-by-side-vertical_12.svg

<svg width="12" height="12" viewBox="0 0 12 12" fill="none" xmlns="http://www.w3.org/2000/svg">
<path fill-rule="evenodd" clip-rule="evenodd" d="M0 2.5C0 1.67157 0.671573 1 1.5 1H6.5H7.5H10.5C11.3284 1 12 1.67157 12 2.5V9.5C12 10.3284 11.3284 11 10.5 11H7.5H6.5H1.5C0.671572 11 0 10.3284 0 9.5V2.5ZM1.5 2H6.5V5.5V6.5V10H1.5C1.22386 10 1 9.77614 1 9.5V2.5C1 2.22386 1.22386 2 1.5 2ZM7.5 6.5V10H10.5C10.7761 10 11 9.77614 11 9.5V6.5H7.5ZM11 5.5V2.5C11 2.22386 10.7761 2 10.5 2H7.5V5.5H11Z" fill="#121212"/>
</svg>

<?xml version="1.0" encoding="utf-8"?>
<!-- Generator: Adobe Illustrator 25.0.0, SVG Export Plug-In . SVG Version: 6.00 Build 0)  -->
<svg version="1.1" id="Layer_1" xmlns="http://www.w3.org/2000/svg" xmlns:xlink="http://www.w3.org/1999/xlink" x="0px" y="0px"
	 viewBox="0 0 12 12" style="enable-background:new 0 0 12 12;" xml:space="preserve">
<style type="text/css">
	.st0{fill-rule:evenodd;clip-rule:evenodd;fill:#121212;}
</style>
<path class="st0" d="M0,2.5C0,1.7,0.7,1,1.5,1h5h1h3C11.3,1,12,1.7,12,2.5v7c0,0.8-0.7,1.5-1.5,1.5h-3h-1h-5C0.7,11,0,10.3,0,9.5
	V2.5z M1.5,2h5v3.5v1V10h-5C1.2,10,1,9.8,1,9.5v-7C1,2.2,1.2,2,1.5,2z M7.5,6.5V10h3c0.3,0,0.5-0.2,0.5-0.5v-3H7.5z M11,5.5v-3
	C11,2.2,10.8,2,10.5,2h-3v3.5H11z"/>
</svg>
